X: 31180
T: Paddy Fahey's
R: reel
M: 4/4
K: Gmajor
G2 dG BcdB|A=F F2 cFAF|DGdG Bcdg fgag fdcA|
G2 dG BcdB|A=F F2 CFA,F|DGdG Bcdg|fdcA G4||
fgaf g2 ae|fgag fd d2|fgaf g2 ag|fdcA dggf|
gbaf gfde|f/g/aeg fdcA|dg g2 dgag|g2 ag fdcA||
G2 dG BcdB|A=F F2 cFAF|G2 dG Bcdg fgag fdcA|
G2 dG BcdB|A=F F2 cFAF|G2 dG Bcdg|fdcA G4||
fgaf g2 ae|fgag fd d2|fgaf g2 ag|fdcA dggf|
gbaf gfde|=f2 eg ^fdcA|dg g2 dgag|fdcA G4||

